X: 318
T: The merry huntsman
C: anon.
O: Ireland
B: Francis O'Neill: "The Dance Music of Ireland" (1907) no. 318
R: Double jig
Z: Transcribed by Frank Nordberg - http://www.musicaviva.com
F: http://www.musicaviva.com/abc/tunes/ireland/oneill-1001/oneill-1001-031
8.abc
M: 6/8
L: 1/8
K: Gdor
(a/g/)W||fcA AcA|fcA fag|fcA AcA|dBG G2e|fcA AcA|fcA efg|afc gec|dBG G2:|


